X: 25937
T: Maurice Lennon's Tribute To Larry Reynolds
R: reel
M: 4/4
K: Amajor
A,3C EA,CE|A,CEF E2EF|EA,~A,2 EA,CE|AEAB cAag|
f3a fecA|dcBA ~B2AB|cABA FAAF|1 EAcB AFEC:|2 EAcB BAag||
|:f3a fecA|dcBA ~B2AB|cAeA fAeA|cBBA B2ag|
~f2af fecA|dcBA ~B2AB|cABA FAAF|1 EAcB BAag:|2 EAcB AFEC||

